Obsidian-SemiLight/actions/16s/insert-math-expression.svg

<svg viewBox="0 0 16 16" xmlns="http://www.w3.org/2000/svg"><path d="m7 2c-1.105 0-2 .895-2 2v3h-2v1h2v6h1v-6h2v-1h-2v-3c0-.552.448-1 1-1h2v-1h-1zm2.4707031 7.7597656-.7070312.7070314 1.4140621 1.414062-1.4140621 1.414063.7070312.707031 1.4140629-1.414062 1.414062 1.414062.707031-.707031-1.414062-1.414063 1.414062-1.414062-.707031-.7070314-1.414062 1.4140624z" fill="#4d4d4d"/></svg>

<svg xmlns="http://www.w3.org/2000/svg" viewBox="0 0 16 16">
  <defs id="defs3051">
    <style type="text/css" id="current-color-scheme">
      .ColorScheme-Text {
        color:#4d4d4d;
      }
      </style>
  </defs>
 <path style="fill:currentColor;fill-opacity:1;stroke:none" 
     d="M 7 2 C 5.895 2 5 2.895 5 4 L 5 7 L 3 7 L 3 8 L 5 8 L 5 14 L 6 14 L 6 8 L 8 8 L 8 7 L 6 7 L 6 4 C 6 3.448 6.448 3 7 3 L 9 3 L 9 2 L 8 2 L 7 2 z M 9.4707031 9.7597656 L 8.7636719 10.466797 L 10.177734 11.880859 L 8.7636719 13.294922 L 9.4707031 14.001953 L 10.884766 12.587891 L 12.298828 14.001953 L 13.005859 13.294922 L 11.591797 11.880859 L 13.005859 10.466797 L 12.298828 9.7597656 L 10.884766 11.173828 L 9.4707031 9.7597656 z "
     class="ColorScheme-Text"
     />
</svg>
